T: Guns Of The Magnificent Seven, The
M: 4/4
L: 1/8
K: Ador
|egdb A2 eg|dBGA (3Bcd eB|dBAa4 f||gedB BAA2||1234 1(2)34|1234 1234|1234 (123)4|1234 123(4)|
